src/assets/icons/filters/categories/helmet.svg

<svg width="48" height="48" viewBox="0 0 48 48" fill="none" xmlns="http://www.w3.org/2000/svg">
<path fill-rule="evenodd" clip-rule="evenodd" d="M47.9857 22.5209C47.7474 15.7401 44.6714 9.43048 39.322 5.19001C33.8221 0.829506 26.6866 -0.890328 19.7428 0.438962C4.56163 3.35193 -1.035 18.4704 0.154553 32.1305C0.494937 36.027 2.78805 42.7075 6.62723 44.542C9.81251 46.0648 15.101 47.9996 22.1935 47.9996C34.9311 47.9996 39.4062 44.3396 39.8738 44.3396H39.8774C45.2662 39.2195 48.2329 29.5006 47.9857 22.5191" fill="#CFD8DC"/>
<path fill-rule="evenodd" clip-rule="evenodd" d="M8.24663 11.4459L22.3367 14.5971C24.5815 15.0988 26.6023 16.3456 27.6861 18.0225C28.564 19.3786 29.1426 20.948 29.1426 22.5621V32.951C29.1426 33.8091 28.4511 34.5598 27.6252 34.7765C23.1071 35.9679 14.026 37.5175 4.17814 34.644C3.89867 33.6479 3.67652 32.6626 3.59949 31.774C3.00829 24.9842 4.15843 17.1733 8.24663 11.4459" fill="white" fill-opacity="0.4"/>
<path fill-rule="evenodd" clip-rule="evenodd" d="M8.24663 11.4459L22.3367 14.5971C24.5815 15.0988 26.6023 16.3456 27.6861 18.0225C28.564 19.3786 29.1426 20.948 29.1426 22.5621V32.951C29.1426 33.8091 28.4511 34.5598 27.6252 34.7765C23.1071 35.9679 14.026 37.5175 4.17814 34.644C3.89867 33.6479 3.67652 32.6626 3.59949 31.774C3.00829 24.9842 4.15843 17.1733 8.24663 11.4459" fill="white" fill-opacity="0.5"/>
<path fill-rule="evenodd" clip-rule="evenodd" d="M37.6577 41.2439C37.4839 41.3764 33.4656 44.3396 22.1935 44.3396C15.7441 44.3396 10.9752 42.7093 8.11058 41.3406C7.25962 40.9357 6.423 39.8841 5.69744 38.5584C9.01783 39.3097 12.4115 39.6895 15.8158 39.6906C21.1258 39.6906 25.6834 38.82 28.4996 38.0783C30.8303 37.4638 32.5717 35.3552 32.5717 32.951V22.5621C32.5717 20.2905 31.8049 18.0816 30.5688 16.1737C28.9797 13.7157 26.305 11.9744 23.1466 11.2668L10.8426 8.52398C13.3023 6.23624 16.4231 4.52536 20.4074 3.7586C21.7063 3.50848 23.026 3.38251 24.3487 3.38239C28.9887 3.38239 33.514 4.93024 37.1883 7.84321C41.7387 11.4531 44.3579 16.618 44.5603 22.3848C44.8058 29.3017 41.7101 37.7558 37.6559 41.2439H37.6577ZM8.24674 11.4459L22.3368 14.5972C24.5816 15.0988 26.6024 16.3456 27.6863 18.0225C28.5641 19.3787 29.1427 20.948 29.1427 22.5621V32.951C29.1427 33.8091 28.4512 34.5598 27.6253 34.7766C23.1072 35.9679 14.0261 37.5175 4.17825 34.644C3.89878 33.6479 3.67663 32.6626 3.5996 31.774C3.0084 24.9842 4.15855 17.1733 8.24674 11.4459V11.4459ZM47.9857 22.5209C48.2329 29.5006 45.2662 39.2195 39.8774 44.3414H39.8738C39.408 44.3414 34.9329 47.9996 22.1917 47.9996C15.101 47.9996 9.81251 46.0648 6.62723 44.542C2.78626 42.7075 0.494937 36.027 0.154553 32.1305C-1.035 18.4704 4.56163 3.35193 19.7428 0.438962C26.6866 -0.890328 33.8203 0.829506 39.322 5.19001C44.6696 9.43048 47.7474 15.7401 47.9857 22.5209ZM23.9976 32.3957C24.2224 32.3964 24.4452 32.3527 24.6531 32.2673C24.8611 32.1819 25.0502 32.0563 25.2095 31.8977C25.3689 31.7392 25.4955 31.5507 25.582 31.3432C25.6686 31.1357 25.7133 30.9132 25.7138 30.6884V20.45C25.7133 20.2253 25.6686 20.0029 25.5822 19.7955C25.4958 19.5881 25.3694 19.3998 25.2102 19.2412C25.051 19.0827 24.8621 18.9571 24.6544 18.8715C24.4466 18.786 24.224 18.7422 23.9994 18.7427C23.7747 18.7422 23.5521 18.786 23.3444 18.8715C23.1366 18.9571 22.9477 19.0827 22.7885 19.2412C22.6293 19.3998 22.5029 19.5881 22.4165 19.7955C22.3301 20.0029 22.2854 20.2253 22.2849 20.45V30.6884C22.2849 31.6307 23.0534 32.3957 23.9994 32.3957H23.9976ZM36.0006 23.8628C35.5471 23.8618 35.1119 24.0409 34.7904 24.3607C34.4689 24.6805 34.2875 25.1148 34.2861 25.5683V27.2756C34.2861 28.2179 35.0547 28.9811 36.0006 28.9811C36.454 28.982 36.8893 28.8029 37.2108 28.4831C37.5323 28.1633 37.7136 27.729 37.715 27.2756V25.5683C37.7136 25.1148 37.5323 24.6805 37.2108 24.3607C36.8893 24.0409 36.454 23.8618 36.0006 23.8628Z" fill="#253238"/>
</svg>

<svg width="48" height="48" viewBox="0 0 48 48" fill="none" xmlns="http://www.w3.org/2000/svg"><path fill-rule="evenodd" clip-rule="evenodd" d="M47.986 22.52c-.239-6.78-3.315-13.09-8.664-17.33C33.822.83 26.687-.89 19.742.439 4.563 3.352-1.034 18.47.156 32.13c.34 3.897 2.633 10.578 6.472 12.412C9.813 46.065 15.101 48 22.193 48c12.738 0 17.213-3.66 17.68-3.66h.004c5.39-5.12 8.356-14.84 8.109-21.82" fill="#CFD8DC"/><path fill-rule="evenodd" clip-rule="evenodd" d="M8.247 11.446l14.09 3.151c2.244.502 4.265 1.749 5.35 3.426.877 1.356 1.456 2.925 1.456 4.54V32.95c0 .858-.692 1.609-1.518 1.825-4.518 1.192-13.599 2.741-23.447-.132-.28-.996-.501-1.981-.579-2.87-.59-6.79.56-14.6 4.648-20.328" fill="#fff" fill-opacity=".4"/><path fill-rule="evenodd" clip-rule="evenodd" d="M8.247 11.446l14.09 3.151c2.244.502 4.265 1.749 5.35 3.426.877 1.356 1.456 2.925 1.456 4.54V32.95c0 .858-.692 1.609-1.518 1.825-4.518 1.192-13.599 2.741-23.447-.132-.28-.996-.501-1.981-.579-2.87-.59-6.79.56-14.6 4.648-20.328" fill="#fff" fill-opacity=".5"/><path fill-rule="evenodd" clip-rule="evenodd" d="M37.658 41.244c-.174.132-4.192 3.096-15.465 3.096-6.449 0-11.218-1.63-14.082-3-.851-.404-1.688-1.456-2.414-2.782a45.916 45.916 0 0010.119 1.133c5.31 0 9.867-.871 12.684-1.613 2.33-.614 4.072-2.723 4.072-5.127V22.562c0-2.271-.767-4.48-2.003-6.388-1.59-2.458-4.264-4.2-7.422-4.907L10.843 8.524c2.46-2.288 5.58-3.999 9.564-4.765a20.854 20.854 0 013.942-.377c4.64 0 9.165 1.548 12.84 4.461 4.55 3.61 7.169 8.775 7.371 14.542.246 6.917-2.85 15.37-6.904 18.859h.002zM8.247 11.446l14.09 3.151c2.245.502 4.265 1.749 5.35 3.426.877 1.356 1.456 2.925 1.456 4.54V32.95c0 .858-.692 1.609-1.518 1.826-4.518 1.19-13.599 2.74-23.447-.133-.28-.996-.501-1.981-.578-2.87-.592-6.79.559-14.6 4.647-20.328zM47.986 22.52c.247 6.98-2.72 16.698-8.109 21.82h-.003c-.466 0-4.941 3.659-17.682 3.659-7.091 0-12.38-1.935-15.565-3.458C2.787 42.708.495 36.027.155 32.13-1.035 18.47 4.562 3.352 19.743.44c6.944-1.33 14.077.39 19.579 4.751 5.348 4.24 8.425 10.55 8.664 17.33zm-23.988 9.875a1.711 1.711 0 001.716-1.708V20.45a1.712 1.712 0 00-2.37-1.578 1.712 1.712 0 00-1.06 1.578v10.238c0 .943.77 1.708 1.715 1.708h-.001zM36 23.863a1.71 1.71 0 00-1.715 1.705v1.708a1.71 1.71 0 001.715 1.705 1.711 1.711 0 001.714-1.705v-1.708a1.71 1.71 0 00-1.714-1.705z" fill="#253238"/></svg>
